X:320
T: Second Victory
S: Traditional Irish Music (K.Tweed)
Z: B.Black
L: 1/8
M: 6/8
R: jig
K: Ador
B|c2 A BAG|A3 GED|E2 A Bcd|e/f/ge age|
d3 ecA|A3 GED|EAB ced|cA^G A2 :|
B|cBc efg|G3 GED|cBc d^cd|eAa ged|
eaf g2 f|e/f/ge dBG|EAB ced|1 cA^G A2 :|2\
cA^G Ace||a2 A cBA|EAB caf|g3 dBG|B/c/dG Bcd|
eaf g2 f|e/f/ge dBG|EAB ced|1 cA^G Ace :|2\
cA^G A2 ||
